!!!OTL: DIE ROSEN UND DIE NELKEN
!!!ARE: Europa, Mitteleuropa, Deutschland
!!!SCT: F1133
!!!YEM: Copyright 1995, estate of Helmut Schaffrath.
**kern
*ICvox
*Ivox
*M4/4
*k[b-e-]
*g:
{4dd
=1
4dd
4cc
4b-
4a
=2
2b-
4g}
{4b-
=3
4a
4cc
4b-
4a
=4
2b-
4r}
{4g
=5
4g
4g
4b
4dd
=6
2dd
4cc}
{4a
=7
4g
4b-
4b-
4a
=8
2g
4r}
{4b-
=9
4b-
4a
4g
4a
=10
2cc
4b-}
{4dd
=11
4dd
4cc
4b-
4cc
=12
2dd
4r}
{4dd
=13
4ffn
4b-
4dd
4ffn
=14
2ffn
4ee-}
{4g
=15
4g
4b-
4.b-
8a
=16
2g
4r}
==
!!!AGN: Liebes - Lied, Klage
!!!ONB: ESAC (Essen Associative Code) Database: FINK
!!!AMT: simple quadruple
!!!AIN: vox
!!!EED: Helmut Schaffrath
!!!EEV: 1.0
*-
